X:3702
T:Daichovo Chara
S:Cathy G
R:Horo
O:Bulgaria
N:2223
M:9/8
K:G
"intro"D2A2G2 cBA|d2G2A2 [cc][dB][eA]|\
D2A2G2cBA|d2G2A2D3||"or"D2gfed cBA|G3F3E3|]\
P:A
dA dA de f2g |f2 ed de f2g|\
f2 ed de f2g |f2 ed d2 d3:|
P:B
|:fgab c'2 b2b |a2 c'2 b2 a2a|\
  fgab c'2 b2b |ad c'd bd a2a||
P:C
  c'bag fd e2d |fd ad fd e2d|\
  c'bag fd e2d |fdad fd e2d||
P:D
|:fd ed fd e2d |fd ed fg a2g|\
  fd ed fd e2d |f2 ed d2 d3:|
